!!!COM: Dentice, Scipione
!!!CDT:
!!!PTL: Il terzo libro de madrigali a cinque voci
!!!PPP: Naples
!!!PPR: Giovanni Giacomo Carlino & Antonio Pace
!!!PDT: 1598
!!!PUB-format:
!!!RISM: D 1663
!!!rime: 284
!!!OTL: Questa vostra pietate
!!!AGN: Madrigal
!!!SCT: Trm0284g
!!!SCA: Trm0284g
!!!original-voices: 5
!!!extant-voices: 4
!!!complete: N
!!!final: G
**kern	**text	**kern	**text	**kern	**text	**kern	**text
*part4	*part4	*part3	*part3	*part2	*part2	*part1	*part1
*staff4	*staff4	*staff3	*staff3	*staff2	*staff2	*staff1	*staff1
*I"Quinto	*	*I"Tenore	*	*I"Alto	*	*I"Canto	*
*I'V	*	*I'T	*	*I'A	*	*I'C	*
*oclefC4	*	*oclefC4	*	*oclefC3	*	*oclefC1	*
*clefGv2	*	*clefGv2	*	*clefG2	*	*clefG2	*
*k[b-]	*	*k[b-]	*	*k[b-]	*	*k[b-]	*
*omet(C)	*	*omet(C)	*	*omet(C)	*	*omet(C)	*
*M4/2	*	*M4/2	*	*M4/2	*	*M4/2	*
=1	=1	=1	=1	=1	=1	=1	=1
2.d	Que-	0r	.	2.g	Que-	2.b-y	Que-
4d	-sta	.	.	4g	-sta	4b-y	-sta
2d	vo-	.	.	2f	vo-	2b-y	vo-
4c	-stra	.	.	4f	-stra	4a	-stra
4B-y	pie-	.	.	4e	pie-	4g	pie-
=2	=2	=2	=2	=2	=2	=2	=2
2c	-ta-	0r	.	2f	-ta-	2a	-ta-
4c	-te	.	.	4f	-te	4a	-te
2B-y	Non	.	.	4f	Non	2dd	Non
.	.	.	.	4g	re-	.	.
2A	re-	.	.	4a	-fri-	2cc	re-
.	.	.	.	[2d	-ge-	.	.
4G	-fri-	.	.	.	.	4b-y	-fri-
=3	=3	=3	=3	=3	=3	=3	=3
4F#X	-ge-	1r	.	4d]	.	4a	-ge-
4G	-rio al	.	.	4B-y	-rio al	4g	-rio al
2A	co-	.	.	2d	co-	2f#X	co-
2A	-re	4r	.	4d	-re	4f#i	-re
.	.	2d	Ma	4f#X	Ma	4a	Ma
4r	.	.	.	4g	dà	4bnX	dà
4A	Ma	[4c	dà	4e	for-	4cc	for-
=4	=4	=4	=4	=4	=4	=4	=4
4B-y	dà	4c]	.	4.d	-z’a	4.f	-z’a
4d	for-	4B-y	for-	.	.	.	.
.	.	.	.	8e	.	8g	.
4c	-z’a	4A	-z’a	4f#X	.	4a	.
4G	l’ar-	4d	l’ar-	4g	l’ar-	4b-y	l’ar-
2A	-do-	2c#X	-do-	2e	-do-	2a	-do-
2A	-re:	2c#i	-re:	2e	-re:	2a	-re:
=5	=5	=5	=5	=5	=5	=5	=5
0r	.	4r	.	4r	.	4r	.
.	.	2d	Dun-	2g	Dun-	2b-y	Dun-
.	.	4d	-que	4g	-que	4b-y	-que
.	.	2d	d’es-	2f	d’es-	2b-y	d’es-
.	.	4c	-ser	4f	-ser	4a	-ser
.	.	4B-y	pie-	4e	pie-	4g	pie-
=6	=6	=6	=6	=6	=6	=6	=6
0r	.	2.c	-to-	2.f	-to-	2a	-to-
.	.	.	.	.	.	2a	-sa ho-
.	.	4F	-sa ho-	4f	-sa ho-	.	.
.	.	4G	-mai	4e-X	-mai	4cc	-mai
.	.	4B-y	ces-	4d	ces-	4f	ces-
.	.	2A	-sa-	2c	-sa-	2f	-sa-
=7	=7	=7	=7	=7	=7	=7	=7
1r	.	2A	-te	2c	-te	4f	-te
.	.	.	.	.	.	2cc	In
.	.	4F	In	4A	In	.	.
.	.	4G	co-	4B-y	co-	4b-y	co-
4c	In	1A	-sì	1c	-sì	4a	-sì
4B-y	co-	.	.	.	.	4.g	stra-
2A	-sì	.	.	.	.	.	.
.	.	.	.	.	.	8f	-na
.	.	.	.	.	.	[4f	gui-
=8	=8	=8	=8	=8	=8	=8	=8
2G	stra-	4D	stra-	4d	stra-	4f]	.
.	.	4G	-na	8cL	.	4e	.
.	.	.	.	8B-yJ	.	.	.
4d	-na	1F	gui-	4A	.	2f	-sa,
2B-y	gui-	.	.	4d	-na	.	.
.	.	.	.	2c	gui-	1r	.
4A	.	.	.	.	.	.	.
2B-y	-sa,	4F	-sa,	2d	-sa,	.	.
.	.	[4B-y	Che	.	.	.	.
=9	=9	=9	=9	=9	=9	=9	=9
2.G	Che	4B-]	.	0r	.	0r	.
.	.	4c	ne	.	.	.	.
.	.	2.B-y	sia	.	.	.	.
4F	ne	.	.	.	.	.	.
2G	sia	.	.	.	.	.	.
.	.	2G	l’al-	.	.	.	.
[2B-y	l’al-	.	.	.	.	.	.
.	.	4A	-m’an-	.	.	.	.
=10	=10	=10	=10	=10	=10	=10	=10
4B-]	.	2.B-y	-ci-	1r	.	1r	.
4A	-m’an-	.	.	.	.	.	.
2.G	-ci-	.	.	.	.	.	.
.	.	8AL	.	.	.	.	.
.	.	8GJ	.	.	.	.	.
.	.	4B-y	.	2r	.	2r	.
4F#X	-sa,	4A	-sa,	.	.	.	.
4r	.	2r	.	4r	.	4r	.
[4B-y	Dun-	.	.	[4g	Dun-	[4dd	Dun-
=11	=11	=11	=11	=11	=11	=11	=11
4B-]	.	0r	.	4g]	.	4dd]	.
4B-y	-que	.	.	4g	-que	4dd	-que
2B-y	d’es-	.	.	2f	d’es-	2dd	d’es-
4A	-ser	.	.	4f	-ser	4cc	-ser
4G	pie-	.	.	4d	pie-	4b-y	pie-
[2A	-to-	.	.	2f	-to-	[2cc	-to-
=12	=12	=12	=12	=12	=12	=12	=12
4A]	.	1r	.	2f	-sa ho-	4cc]	.
4A	-sa ho-	.	.	.	.	4f	-sa ho-
4c	-mai	.	.	4e-X	-mai	4g	-mai
4d	ces-	.	.	4f	ces-	4b-y	ces-
2c	-sa-	2r	.	2f	-sa-	2a	-sa-
2c	-te	4r	.	2f	-te	2a	-te
.	.	[4c	In	.	.	.	.
=13	=13	=13	=13	=13	=13	=13	=13
4F	In	4c]	.	2r	.	2r	.
4G	co-	4B-y	co-	.	.	.	.
1A	-sì	4A	-sì	4A	In	4cc	In
.	.	4.G	stra-	4B-y	co-	4b-y	co-
.	.	.	.	2c	-sì	2a	-sì
.	.	8F	-na	.	.	.	.
.	.	2F	gui-	.	.	.	.
4D	stra-	.	.	4d	stra-	2g	stra-
4G	-na	4E	.	8cL	.	.	.
.	.	.	.	8B-yJ	.	.	.
=14	=14	=14	=14	=14	=14	=14	=14
8dL	gui-	1F	-sa	4A	.	4f	-na
8eJ	.	.	.	.	.	.	.
4.f	.	.	.	4d	-na	2b-y	gui-
.	.	.	.	2c	gui-	.	.
16eL	.	.	.	.	.	.	.
16dJ	.	.	.	.	.	.	.
4c	.	.	.	.	.	4a	.
2d	-sa	2r	.	4B-y	-sa	2b-y	-sa
.	.	.	.	2f	Che	.	.
[2B-y	Che	[2d	Che	.	.	4r	.
.	.	.	.	4g	ne	[4b-y	Che
=15	=15	=15	=15	=15	=15	=15	=15
4B-]	.	4d]	.	2.f	sia	4b-]	.
4A	ne	4c	ne	.	.	4cc	ne
2B-y	sia	2d	sia	.	.	4b-y	sia
.	.	.	.	2d	l’al-	2f	l’al-
2.d	l’al-	2.f	l’al-	.	.	.	.
.	.	.	.	4e	-m’an-	4g	-m’an-
.	.	.	.	[2f	-ci-	[2a	-ci-
4c	-m’an-	4e	-m’an-	.	.	.	.
=16	=16	=16	=16	=16	=16	=16	=16
2B-y	-ci-	2.d	-ci-	4f]	.	4a]	.
.	.	.	.	8eL	.	4g	.
.	.	.	.	8dJ	.	.	.
2A	-sa:	.	.	4f	.	2a	-sa:
.	.	4c#X	-sa:	4e	-sa:	.	.
4r	.	1r	.	4r	.	4r	.
4c	Per-	.	.	4f	Per-	4a	Per-
4d	-ch’el-	.	.	4f	-ch’el-	4b-y	-ch’el-
4c	-la	.	.	4e	-la	4g	-la
=17	=17	=17	=17	=17	=17	=17	=17
4A	vi	1r	.	4f	vi	4dd	vi
4G	de-	.	.	4d	de-	4b-y	de-
2D	-si-	.	.	2d	-si-	2a	-si-
2D	-a	2r	.	2d	-a	2a	-a
4d	O in	4B-y	O in	2r	.	2r	.
4d	e-	4B-y	e-	.	.	.	.
=18	=18	=18	=18	=18	=18	=18	=18
2d	-stre-	2B-y	-stre-	0r	.	2r	.
4c	-mo	4A	-mo	.	.	4dd	O in
4B-y	cru-	4G	cru-	.	.	4dd	e-
2A	-de-	2F#X	-de-	.	.	2dd	-stre-
2d	-le,	2G	-le,	.	.	4cc	-mo
.	.	.	.	.	.	4b-y	cru-
=19	=19	=19	=19	=19	=19	=19	=19
1r	.	4c	<O in	4e-X	O in	4a	-de-
.	.	4c	e-	4e-i	e-	2b-y	.
.	.	2c	-stre-	2e-i	-stre-	.	.
.	.	.	.	.	.	4a	.
2r	.	4B-y	-mo	4d	-mo	1b-y	-le,
.	.	4A	cru-	4c	cru-	.	.
4d	<O in	2G	-de-	2B-y	-de-	.	.
4d	e-	.	.	.	.	.	.
=20	=20	=20	=20	=20	=20	=20	=20
2d	-stre-	1F	-le,>	1f	-le,	1r	.
4c	-mo	.	.	.	.	.	.
4B-y	cru-	.	.	.	.	.	.
2A	-de-	1r	.	2r	.	4cc	<O in
.	.	.	.	.	.	4cc	e-
2A	-le,>	.	.	4f	O in	2cc	-stre-
.	.	.	.	4f	e-	.	.
=21	=21	=21	=21	=21	=21	=21	=21
0r	.	4d	O in	2f	-stre-	4b-y	-mo
.	.	4d	e-	.	.	4a	cru-
.	.	2d	-stre-	4e-X	-mo	1g	-de-
.	.	.	.	4d	cru-	.	.
.	.	4c	-mo	2enX	-de-	.	.
.	.	4B-y	cru-	.	.	.	.
.	.	2c	-de-	2f	-le,	2a	-le,>
=22	=22	=22	=22	=22	=22	=22	=22
2r	.	2.F	-le	4a	O in	2r	.
.	.	.	.	4a	e-	.	.
4f	O in	.	.	1a	-stre-	4dd	O in
4f	e-	8EL	.	.	.	4dd	e-
.	.	8DJ	.	.	.	.	.
2f	-stre-	[1A	.	.	.	2dd	-stre-
4e	-mo	.	.	4g	-mo	4cc	-mo
4d	cru-	.	.	4f	cru-	4b-y	cru-
=23	=23	=23	=23	=23	=23	=23	=23
4c#X	-de-	1A]	.	2e	-del	2a	-de-
4e	-le o in	.	.	.	.	.	.
4d	tut-	.	.	4r	.	2f#X	-le o in
4cnXi	-to	.	.	4c	o in	.	.
[1d	pi-	2r	.	2B-y	tut-	2g	tut-
.	.	[2d	o in	2A	-to	2a	-to
=24	=24	=24	=24	=24	=24	=24	=24
1d]	.	4d]	.	4d	pi-	1b-y	pi-
.	.	8c	tut-	8eL	.	.	.
.	.	8B-y	-to	8fJ	.	.	.
.	.	1d	pi-	1g	.	.	.
1D	-a,	.	.	.	.	1dd	-a,
.	.	2d	-a,	2f#X	-a,	.	.
=25	=25	=25	=25	=25	=25	=25	=25
0r	.	4r	.	4r	.	4r	.
.	.	4A	Per-	4e	Per-	4cc	Per-
.	.	4B-y	-ch’el-	4.d	-ch’el-	4f	-ch’el-
.	.	4G	-la	.	.	4g	-la
.	.	.	.	8e	-la	.	.
.	.	4d	vi	4f	vi	4a	vi
.	.	4B-y	de-	4g	de-	4dd	de-
.	.	2A	-si-	2e	-si-	2cc#X	-si-
=26	=26	=26	=26	=26	=26	=26	=26
2r	.	2A	-a	2e	-a	2cc#i	-a
4B-y	O in	4d	O in	2r	.	2r	.
4B-y	e-	4d	e-	.	.	.	.
2B-y	-stre-	2d	-stre-	1r	.	2r	.
4A	-mo	4c	-mo	.	.	4dd	O in
4G	cru-	4B-y	cru-	.	.	4dd	e-
=27	=27	=27	=27	=27	=27	=27	=27
2F#X	-de-	2A	-de-	1r	.	2dd	-stre-
2G	-le,	2d	-le,	.	.	4cc	-mo
.	.	.	.	.	.	4b-y	cru-
4c	<O in	1r	.	4e-X	O in	4a	-de-
4c	e-	.	.	4e-i	e-	2b-y	.
2c	-stre-	.	.	2e-i	-stre-	.	.
.	.	.	.	.	.	4a	.
=28	=28	=28	=28	=28	=28	=28	=28
4B-y	-mo	2r	.	4d	-mo	1b-y	-le,
4A	cru-	.	.	4c	cru-	.	.
2G	-de-	4d	<O in	2B-y	-de-	.	.
.	.	4d	e-	.	.	.	.
1F	-le,>	2d	-stre-	1f	-le,	1r	.
.	.	4c	-mo	.	.	.	.
.	.	4B-y	cru-	.	.	.	.
=29	=29	=29	=29	=29	=29	=29	=29
1r	.	2A	-de-	4r	.	4cc	<O in
.	.	.	.	2f	<O in	4cc	e-
.	.	2A	-le,>	.	.	2cc	-stre-
.	.	.	.	4f	e-	.	.
4d	O in	1r	.	2f	-stre-	4b-y	-mo
4d	e-	.	.	.	.	4a	cru-
2d	-stre-	.	.	4e-X	-mo	[2g	-de-
.	.	.	.	4d	cru-	.	.
=30	=30	=30	=30	=30	=30	=30	=30
4c	-mo	1r	.	2d	-de-	2g]	.
4B-y	cru-	.	.	.	.	.	.
2c	-de-	.	.	2f	-le,>	2a	-le,>
2.F	-le	2r	.	4a	O in	2r	.
.	.	.	.	4a	e-	.	.
.	.	4f	O in	[2a	-stre-	4dd	O in
8EL	.	4f	e-	.	.	4dd	e-
8DJ	.	.	.	.	.	.	.
=31	=31	=31	=31	=31	=31	=31	=31
1A	.	2f	-stre-	2a]	.	2dd	-stre-
.	.	4e	-mo	4g	-mo	4cc	-mo
.	.	4d	cru-	4f	cru-	4b-y	cru-
2r	.	2c#X	-del	4e	-de-	2a	-de-
.	.	.	.	4e	-le o in	.	.
2A	o in	4r	.	4d	tut-	2f#X	-le o in
.	.	4cnXi	o in	4c	-to	.	.
=32	=32	=32	=32	=32	=32	=32	=32
2G	tut-	2B-y	tut-	2.d	pi-	2g	tut-
2F#X	-to	2A	-to	.	.	2a	-to
.	.	.	.	4c	.	.	.
1G	pi-	1d	pi-	4B-y	.	1b-y	pi-
.	.	.	.	4G	.	.	.
.	.	.	.	2g	.	.	.
=33	=33	=33	=33	=33	=33	=33	=33
2A	-a,	4d	-a,	2f#X	-a,	1dd	-a,
.	.	4A	<o in	.	.	.	.
2BnX	<o in	4G	tut-	4r	.	.	.
.	.	4F	-to	4fnXi	o in	.	.
2c	tut-	[1G	pi-	2e-X	tut-	1r	.
2d	-to	.	.	2d	-to	.	.
=34	=34	=34	=34	=34	=34	=34	=34
1e-X	pi-	1G]	.	1c	pi-	1r	.
1d	-a,>	2F#X	-a,>	2A	-a,	2r	.
.	.	2r	.	2f	<o in	2dd	o in
=35	=35	=35	=35	=35	=35	=35	=35
2r	.	4A	o in	2e-X	tut-	2.cc	tut-
.	.	2G	tut-	.	.	.	.
4r	.	.	.	2d	-to	.	.
2d	<o in	4F	-to	.	.	4bnX	-to
.	.	1G	pi-	1g	pi-	1cc	pi-
8c	tut-	.	.	.	.	.	.
8B-y	-to	.	.	.	.	.	.
2c	pi-	.	.	.	.	.	.
=36	=36	=36	=36	=36	=36	=36	=36
0BnXl	-a.>	0dl	-a.	0gl	-a.>	0ddl	-a.
==	==	==	==	==	==	==	==
*-	*-	*-	*-	*-	*-	*-	*-
!!!system-decoration: [*]
!!!YEM:	Scipione Dentice, “Questa vostra pietate,” 1598 (Trm0284g; August 2018) Tasso in Music Project (http://www.tassomusic.org) Copyright 2016 Emiliano Ricciardi
!!!RDF**kern: i = editorial accidental
!!!RDF**kern: l = terminal long
!!!ENC: Emiliano Ricciardi
!!!END: 2018
!!!EED: Deutsch, Catherine
!!!EEV: 2018/09/18
!!!YEC: Copyright 2018 Emiliano Ricciardi, All Rights Reserved
!!!ONB: Translated from MusicXML on 2018/09/18 and edited by Craig Stuart Sapp
!!@@BEGIN:	VERSEDATA
!!@SOLERTI:	284
!!@CATALOGNUM:	Trm0284
!!@LAST_MODIFIED: 2020/07/12
!!@TITLE:		Questa vostra pietate
!!@GENRE:		madrigale
!!@MANUSRC:	Amz, E<sub>1</sub>, I<sub>4</sub>, P<sub>4</sub>, V<sub>13/E1</sub>
!!@PRINTSRC:	8, 9, 11, 12, 13, 15, 20, 24, 29, 33, 67, 169
!!@@BEGIN:	VERSES
!!@ABOUTIT:	Persuade la sua donna ad essere o in tutto crudele o in tutto pia.
!!@ABOUTEN:	He persuades his lady to be either fully cruel, or fully pitiful.
!!@EDITOR:	Solerti, Angelo
!!@EDITION_TITLE: Le Rime di Torquato Tasso
!!@EDITION_LOC:	Bologna
!!@EDITION_PUB:	Romagnoli-Dall’Acqua
!!@EDITION_DATE:  1898-1902
!!@EDITION_VOL:	2
!!@EDITION_PAGE:  355
!!@TRANSLATOR:	Emiliano Ricciardi and Amyrose McCue Gill
!!@VERSE:
!!	Questa vostra pietate
!!	Non refrigerio al core
!!	Ma dà forza a l'ardore;
!!	Dunque d'esser pietosa omai cessate
!!	In così strana guisa
!!	Che ne sia l'alma uccisa;
!!	Perch'ella vi desia
!!	O in estremo crudele o in tutto pia.
!!@TVERSE:
!!	This compassion of yours
!!	Brings not respite to my heart
!!	But strength to my ardor;
!!	Therefore, cease now to be compassionate
!!	In such a strange manner
!!	That my soul is slain by it;
!!	Because she desires you
!!	Whether extremely cruel or entirely compassionate.
!!@@END:		VERSES
!!@OTHER_CRIT_ED:   None
!!@ATTRIBUTION_ABOUT:	Secure
!!		<br>
!!		Among other sources (see Literary Sources), this poem appears in the authoritative manuscript It. 385, Biblioteca Estense Universitaria, Modena.
!!@DATING:	In or before 1581
!!		<Br>
!!		The earliest datable appearance of this poem is Manuzio's 1581 print of the <i>Rime</> (see Literary Sources).
!!@DEDICATEE:
!!@COMMENTARY:
!!@@END:		VERSEDATA
!!@@BEGIN:	SETTING
!!@CATALOGNUM:	Trm0284g
!!@RIMETITLE:	Questa vostra pietate
!!@SOLERTI:	284
!!@COMPOSER:	Dentice, Scipione
!!@PRINCEPSTITLE:	Il terzo libro de madrigali a cinque voci
!!@PRINCEPSLOC:	Napoli
!!@NORMLOC:	Naples
!!@NORMPUB:	Giovanni Giacomo Carlino & Antonio Pace
!!@NORMPUBSHORT:	Carlino & Pace
!!@PRINCEPSPUB:	Carlino & Pace
!!@PRINCEPSYEAR:	1598
!!@PRINCEPSRISM:	D 1663
!!@REPRINTS:	
!!@OVOICES:	5
!!@EXTANTVOICES:	4
!!@PARTBOOKS:	
!!@EXTPARTBOOKS:	
!!@OCLEFS:	C1,C3,C4,C4
!!@OMENSURATION:	C
!!@OKEYSIG:	b-
!!@FINAL:	G
!!@TIMPEDITOR:	Deutsch, Catherine
!!@NOTE:		
!!@@END:		SETTING
